img/svg/welcome-img.svg

<svg width="80" height="80" viewBox="0 0 80 80" fill="none" xmlns="http://www.w3.org/2000/svg">
<g clip-path="url(#clip0)">
<path d="M12.8925 40.3622C12.7119 21.5594 26.7808 5.85297 44.9164 3.44594C43.3103 3.23531 41.6697 3.125 40 3.125C19.5872 3.125 2.93047 19.9133 3.12687 40.3622L3.125 76.875L3.73625 76.2637C6.28531 73.7147 9.50188 72.0936 12.8909 71.4961L12.8925 40.3622Z" fill="#E8E8FF"/>
<path d="M3.12437 80C2.72171 80 2.31578 79.9222 1.92906 79.762C0.761248 79.2783 0 78.1387 0 76.8747L0.001875 40.3754C-0.0964061 29.6581 4.02546 19.5386 11.6095 11.8812C19.1981 4.21952 29.2807 0 39.9999 0C50.799 0 60.8971 4.19077 68.4341 11.8003C75.995 19.4342 80.1019 29.5884 79.9981 40.3921C79.8961 51.0318 75.6653 60.9999 68.085 68.4605C60.5241 75.9022 50.4983 79.9998 39.8532 79.9998C39.8405 79.9998 39.8273 79.9998 39.8146 79.9998C33.5177 80 27.5062 78.5877 21.9475 75.802C16.6362 73.1403 10.2058 74.2134 5.94608 78.4734L5.33483 79.0847C4.73702 79.6823 3.93749 79.9998 3.12437 80ZM15.8229 68.1016C18.8576 68.1016 21.9107 68.7927 24.7478 70.2145C29.4288 72.5605 34.499 73.7499 39.8174 73.7499C39.8274 73.75 39.8401 73.7499 39.8498 73.7499C58.3686 73.7513 73.5713 58.7629 73.7483 40.3321C73.8359 31.209 70.3716 22.6382 63.9933 16.1986C57.6394 9.7831 49.1183 6.24999 39.9999 6.24999C30.9613 6.24999 22.4559 9.81186 16.0501 16.2793C9.64467 22.7467 6.16483 31.2887 6.25171 40.3321C6.25186 40.3421 6.25186 40.3523 6.25186 40.3623L6.2503 70.5289C9.21154 68.9278 12.5059 68.1016 15.8229 68.1016Z" fill="#4C51CC"/>
<path d="M43.7444 47.7854L56.0845 35.3679C57.3001 34.1446 57.2939 32.1675 56.0706 30.9519C54.8476 29.7364 52.8705 29.7422 51.6546 30.9658L39.312 43.386C38.6583 44.0452 37.7912 44.4083 36.8703 44.4083C35.9494 44.4083 35.0823 44.0452 34.4287 43.386L28.4519 37.3575C27.2377 36.1328 25.2606 36.124 24.0359 37.3384C22.8112 38.5527 22.8028 40.5297 24.0169 41.7544L29.9938 47.7829C31.8293 49.634 34.2713 50.6534 36.8704 50.6534C39.4696 50.6534 41.9116 49.634 43.7444 47.7854Z" fill="#00B55E"/>
</g>
<defs>
<clipPath id="clip0">
<rect width="80" height="80" fill="white"/>
</clipPath>
</defs>
</svg>

<svg width="80" height="80" fill="none" xmlns="http://www.w3.org/2000/svg"><g clip-path="url(#clip0)"><path d="M12.893 40.362C12.712 21.56 26.78 5.853 44.916 3.446A37.79 37.79 0 0040 3.125c-20.413 0-37.07 16.788-36.873 37.237l-.002 36.513.611-.611a17.156 17.156 0 019.155-4.768l.002-31.134z" fill="#E8E8FF"/><path d="M3.124 80A3.125 3.125 0 010 76.875l.002-36.5C-.096 29.658 4.025 19.54 11.609 11.881 19.2 4.22 29.282 0 40 0c10.8 0 20.898 4.19 28.435 11.8 7.561 7.634 11.668 17.788 11.564 28.592C79.896 51.032 75.665 61 68.085 68.46 60.525 75.903 50.498 80 39.853 80h-.038c-6.297 0-12.309-1.412-17.867-4.198-5.312-2.662-11.742-1.589-16.002 2.671l-.611.612a3.127 3.127 0 01-2.21.915zm12.699-11.898c3.035 0 6.088.69 8.925 2.112 4.68 2.347 9.751 3.536 15.07 3.536h.032c18.519.001 33.721-14.987 33.898-33.418.088-9.123-3.376-17.694-9.755-24.133C57.64 9.783 49.118 6.25 40 6.25c-9.039 0-17.544 3.562-23.95 10.03-6.405 6.467-9.885 15.009-9.798 24.052v.03L6.25 70.53a20.137 20.137 0 019.573-2.427z" fill="#4C51CC"/><path d="M43.744 47.785l12.34-12.417a3.123 3.123 0 10-4.43-4.402l-12.342 12.42a3.417 3.417 0 01-2.442 1.022c-.92 0-1.788-.363-2.441-1.022l-5.977-6.029a3.122 3.122 0 10-4.435 4.397l5.977 6.029a9.619 9.619 0 006.876 2.87c2.6 0 5.042-1.019 6.874-2.868z" fill="#00B55E"/></g><defs><clipPath id="clip0"><path fill="#fff" d="M0 0h80v80H0z"/></clipPath></defs></svg>
